src/img/icons/zero risco_branco.svg

<svg width="54" height="54" viewBox="0 0 54 54" fill="none" xmlns="http://www.w3.org/2000/svg">
<path d="M22.912 47.4798C20.768 47.4798 18.896 47.0798 17.296 46.2798C15.696 45.4478 14.352 44.2798 13.264 42.7758C12.176 41.2398 11.36 39.3838 10.816 37.2078C10.272 34.9998 10 32.5198 10 29.7678C10 25.7358 10.528 22.4078 11.584 19.7838C12.672 17.1598 14.192 15.2078 16.144 13.9278C18.096 12.6478 20.352 12.0078 22.912 12.0078C25.024 12.0078 26.88 12.4238 28.48 13.2558C30.112 14.0558 31.472 15.2238 32.56 16.7598C33.648 18.2958 34.464 20.1678 35.008 22.3758C35.552 24.5518 35.824 27.0158 35.824 29.7678C35.824 33.7998 35.28 37.1278 34.192 39.7518C33.104 42.3438 31.6 44.2798 29.68 45.5598C27.76 46.8398 25.504 47.4798 22.912 47.4798ZM22.912 41.5278C23.808 41.5278 24.608 41.3358 25.312 40.9518C26.016 40.5678 26.624 39.9278 27.136 39.0318C27.648 38.1358 28.032 36.9358 28.288 35.4318C28.544 33.8958 28.672 32.0078 28.672 29.7678C28.672 27.4958 28.544 25.6078 28.288 24.1038C28.032 22.5678 27.648 21.3518 27.136 20.4558C26.624 19.5598 26.016 18.9198 25.312 18.5358C24.608 18.1198 23.808 17.9118 22.912 17.9118C22.016 17.9118 21.216 18.1198 20.512 18.5358C19.808 18.9198 19.2 19.5598 18.688 20.4558C18.176 21.3518 17.776 22.5678 17.488 24.1038C17.232 25.6078 17.104 27.4958 17.104 29.7678C17.104 32.0078 17.232 33.8958 17.488 35.4318C17.776 36.9358 18.176 38.1358 18.688 39.0318C19.2 39.9278 19.808 40.5678 20.512 40.9518C21.216 41.3358 22.016 41.5278 22.912 41.5278Z" fill="#FEFEFF"/>
<path d="M37.5356 17.8537L44.8813 6H46.4644L39.1187 17.8537H37.5356ZM38.438 12.439C37.9525 12.439 37.5251 12.3252 37.1557 12.0976C36.7863 11.8591 36.5013 11.5014 36.3008 11.0244C36.1003 10.5366 36 9.93496 36 9.21951C36 8.49322 36.1003 7.8916 36.3008 7.41463C36.5013 6.93767 36.7863 6.58537 37.1557 6.35772C37.5251 6.11924 37.9525 6 38.438 6C38.9235 6 39.3456 6.11924 39.7045 6.35772C40.0739 6.58537 40.3588 6.93767 40.5594 7.41463C40.7599 7.8916 40.8602 8.49322 40.8602 9.21951C40.8602 9.93496 40.7599 10.5366 40.5594 11.0244C40.3588 11.5014 40.0739 11.8591 39.7045 12.0976C39.3456 12.3252 38.9235 12.439 38.438 12.439ZM38.438 11.0894C38.6491 11.0894 38.8179 11.0136 38.9446 10.8618C39.0712 10.71 39.1662 10.4986 39.2296 10.2276C39.2929 9.9458 39.3245 9.60976 39.3245 9.21951C39.3245 8.82927 39.2929 8.49865 39.2296 8.22764C39.1662 7.9458 39.0712 7.729 38.9446 7.57724C38.8179 7.42547 38.6491 7.34959 38.438 7.34959C38.2269 7.34959 38.0528 7.42547 37.9156 7.57724C37.7889 7.729 37.6939 7.9458 37.6306 8.22764C37.5673 8.49865 37.5356 8.82927 37.5356 9.21951C37.5356 9.5122 37.5515 9.77778 37.5831 10.0163C37.6253 10.2439 37.6781 10.439 37.7414 10.6016C37.8153 10.7534 37.9103 10.8726 38.0264 10.9594C38.1425 11.0461 38.2797 11.0894 38.438 11.0894ZM45.5778 18C45.0923 18 44.6649 17.8808 44.2955 17.6423C43.9261 17.4038 43.6412 17.0461 43.4406 16.5691C43.2401 16.0921 43.1398 15.4905 43.1398 14.7642C43.1398 14.0379 43.2401 13.4363 43.4406 12.9593C43.6412 12.4824 43.9261 12.1301 44.2955 11.9024C44.6649 11.664 45.0923 11.5447 45.5778 11.5447C46.0633 11.5447 46.4855 11.664 46.8443 11.9024C47.2137 12.1301 47.4987 12.4824 47.6992 12.9593C47.8997 13.4363 48 14.0379 48 14.7642C48 15.4905 47.8997 16.0921 47.6992 16.5691C47.4987 17.0461 47.2137 17.4038 46.8443 17.6423C46.4855 17.8808 46.0633 18 45.5778 18ZM45.5778 16.6341C45.7784 16.6341 45.942 16.5637 46.0686 16.4228C46.2058 16.271 46.3061 16.0542 46.3694 15.7724C46.4327 15.4905 46.4644 15.1545 46.4644 14.7642C46.4644 14.374 46.4327 14.0434 46.3694 13.7724C46.3061 13.4905 46.2058 13.2791 46.0686 13.1382C45.942 12.9864 45.7784 12.9106 45.5778 12.9106C45.3668 12.9106 45.1926 12.9864 45.0554 13.1382C44.9288 13.2791 44.8338 13.4905 44.7704 13.7724C44.7071 14.0434 44.6755 14.374 44.6755 14.7642C44.6755 15.1545 44.7071 15.4905 44.7704 15.7724C44.8338 16.0542 44.9288 16.271 45.0554 16.4228C45.1926 16.5637 45.3668 16.6341 45.5778 16.6341Z" fill="#FEFEFF"/>
</svg>

<svg xmlns="http://www.w3.org/2000/svg" width="54" height="54" fill="none" viewBox="0 0 54 54"><path fill="#fefeff" d="M22.912 47.48q-3.216 0-5.616-1.2-2.4-1.248-4.032-3.504-1.632-2.304-2.448-5.568Q10 33.896 10 29.768q0-6.048 1.584-9.984 1.632-3.936 4.56-5.856t6.768-1.92q3.168 0 5.568 1.248 2.448 1.2 4.08 3.504t2.448 5.616q.816 3.264.816 7.392 0 6.048-1.632 9.984-1.632 3.888-4.512 5.808t-6.768 1.92m0-5.952q1.344 0 2.4-.576t1.824-1.92 1.152-3.6q.384-2.304.384-5.664 0-3.408-.384-5.664-.384-2.304-1.152-3.648t-1.824-1.92q-1.056-.624-2.4-.624t-2.4.624q-1.056.576-1.824 1.92t-1.2 3.648q-.384 2.256-.384 5.664 0 3.36.384 5.664.432 2.256 1.2 3.6t1.824 1.92 2.4.576"/><path fill="#fefeff" d="M37.536 17.854 44.88 6h1.583L39.12 17.854zm.902-5.415q-.729 0-1.282-.341-.555-.358-.855-1.074Q36 10.293 36 9.22q0-1.09.3-1.805.301-.716.856-1.057Q37.71 6 38.438 6t1.267.358q.554.341.854 1.057.3.715.301 1.805 0 1.073-.3 1.804-.301.716-.855 1.074-.54.34-1.267.341m0-1.35q.317 0 .507-.227.189-.228.285-.634.095-.423.095-1.008t-.095-.992q-.096-.423-.285-.65a.63.63 0 0 0-.507-.228.67.67 0 0 0-.522.227q-.19.228-.285.65a4.4 4.4 0 0 0-.095.993q0 .438.047.796.063.342.158.586a.96.96 0 0 0 .285.357q.175.13.412.13M45.578 18q-.728 0-1.283-.358-.554-.357-.854-1.073-.3-.715-.301-1.805 0-1.09.3-1.805.301-.715.855-1.057.554-.357 1.283-.357.727 0 1.266.357.555.342.855 1.057.3.716.301 1.805 0 1.09-.3 1.805-.301.716-.856 1.073-.537.358-1.266.358m0-1.366q.3 0 .49-.211.207-.228.301-.65.095-.423.095-1.009t-.095-.992q-.094-.422-.3-.634a.61.61 0 0 0-.491-.227.67.67 0 0 0-.523.227q-.189.212-.285.634a4.4 4.4 0 0 0-.095.992q0 .586.095 1.008.096.423.285.65.207.212.523.212"/></svg>
